assets/icons/solid/plus-minus.svg

<svg xmlns="http://www.w3.org/2000/svg" viewBox="0 0 384 512"><!--! Font Awesome Free 6.6.0 by @fontawesome - https://fontawesome.com License - https://fontawesome.com/license/free (Icons: CC BY 4.0, Fonts: SIL OFL 1.1, Code: MIT License) Copyright 2024 Fonticons, Inc. --><path d="M224 32c0-17.7-14.3-32-32-32s-32 14.3-32 32l0 112L48 144c-17.7 0-32 14.3-32 32s14.3 32 32 32l112 0 0 112c0 17.7 14.3 32 32 32s32-14.3 32-32l0-112 112 0c17.7 0 32-14.3 32-32s-14.3-32-32-32l-112 0 0-112zM0 480c0 17.7 14.3 32 32 32l320 0c17.7 0 32-14.3 32-32s-14.3-32-32-32L32 448c-17.7 0-32 14.3-32 32z"/></svg>

<svg xmlns="http://www.w3.org/2000/svg" viewBox="0 0 384 512"><!--! Font Awesome Pro 6.5.1 by @fontawesome - https://fontawesome.com License - https://fontawesome.com/license (Commercial License) Copyright 2023 Fonticons, Inc. --><path d="M224 32c0-17.7-14.3-32-32-32s-32 14.3-32 32V144H48c-17.7 0-32 14.3-32 32s14.3 32 32 32H160V320c0 17.7 14.3 32 32 32s32-14.3 32-32V208H336c17.7 0 32-14.3 32-32s-14.3-32-32-32H224V32zM0 480c0 17.7 14.3 32 32 32H352c17.7 0 32-14.3 32-32s-14.3-32-32-32H32c-17.7 0-32 14.3-32 32z"/></svg>
